static/assets/img/icons/theme/home/towel.svg

<svg height="24" viewBox="0 0 24 24" width="24" xmlns="http://www.w3.org/2000/svg"><g fill="none" fill-rule="evenodd"><path d="m0 0h24v24h-24z" opacity="0"/><path d="m18 16h-9c-.55228475 0-1-.4477153-1-1s.44771525-1 1-1h8c.5522847 0 1-.4477153 1-1s-.4477153-1-1-1h-8c-1.65685425 0-3 1.3431458-3 3s1.34314575 3 3 3h10.5c1.5 0 1.5.5 1.5 1s0 1-1.5 1h-12.5c-2.209139 0-4-1.790861-4-4v-8c0-2.209139 1.790861-4 4-4h10c2.209139 0 4 1.790861 4 4v5.0000005c0 1.6568537-1.3431458 2.9999995-3 2.9999995z" fill="#000"/></g></svg>

<svg width="24px" height="24px" viewBox="0 0 24 24" version="1.1" xmlns="http://www.w3.org/2000/svg" xmlns:xlink="http://www.w3.org/1999/xlink">
    <title>Icon For Towel</title>
    <g stroke="none" stroke-width="1" fill="none" fill-rule="evenodd">
        <rect opacity="0" x="0" y="0" width="24" height="24"></rect>
        <path d="M18,16 L9,16 C8.44771525,16 8,15.5522847 8,15 C8,14.4477153 8.44771525,14 9,14 L17,14 C17.5522847,14 18,13.5522847 18,13 C18,12.4477153 17.5522847,12 17,12 L9,12 C7.34314575,12 6,13.3431458 6,15 C6,16.6568542 7.34314575,18 9,18 L19.5,18 C21,18 21,18.5 21,19 C21,19.5 21,20 19.5,20 L7,20 C4.790861,20 3,18.209139 3,16 L3,8 C3,5.790861 4.790861,4 7,4 L17,4 C19.209139,4 21,5.790861 21,8 L21,13.0000005 C21,14.6568542 19.6568542,16 18,16 Z" fill="#000000"></path>
    </g>
</svg>
